static/assets/img/icons/theme/design/flip-vertical.svg

<svg height="24" viewBox="0 0 24 24" width="24" xmlns="http://www.w3.org/2000/svg"><g fill="none" fill-rule="evenodd"><path d="m0 0h24v24h-24z" opacity="0"/><g fill="#000"><path d="m9.07117914 12.5710461h4.76148356c.2761423 0 .5-.2238576.5-.5v-11.90370876c0-.27614238-.2238577-.5-.5-.5-.2044523 0-.3883067.12447547-.4642384.31430466l-4.7614835 11.9037088c-.10255671.2563918.02215124.547377.278543.6499337.05906014.023624.12208563.0357616.18569534.0357616z" opacity=".3" transform="matrix(0 1 -1 0 17.571046 -5.332662)"/><path d="m9.23851648 24.5h4.76148352c.2761424 0 .5-.2238576.5-.5v-11.9037088c0-.2761424-.2238576-.5-.5-.5-.2044523 0-.3883067.1244755-.4642383.3143047l-4.76148356 11.9037088c-.10255671.2563917.02215124.5473769.278543.6499336.05906014.0236241.12208563.0357617.18569534.0357617z" transform="matrix(0 -1 -1 0 29.5 29.5)"/><rect height="20" opacity=".3" rx="1" transform="matrix(0 1 -1 0 24 0)" width="2" x="11" y="2"/></g></g></svg>

<svg width="24px" height="24px" viewBox="0 0 24 24" version="1.1" xmlns="http://www.w3.org/2000/svg" xmlns:xlink="http://www.w3.org/1999/xlink">
    <title>Icon For Flip-vertical</title>
    <g stroke="none" stroke-width="1" fill="none" fill-rule="evenodd">
        <rect opacity="0" x="0" y="0" width="24" height="24"></rect>
        <path d="M9.07117914,12.5710461 L13.8326627,12.5710461 C14.108805,12.5710461 14.3326627,12.3471885 14.3326627,12.0710461 L14.3326627,0.16733734 C14.3326627,-0.108805035 14.108805,-0.33266266 13.8326627,-0.33266266 C13.6282104,-0.33266266 13.444356,-0.208187188 13.3684243,-0.0183579985 L8.6069408,11.8853508 C8.50438409,12.1417426 8.62909204,12.4327278 8.8854838,12.5352845 C8.94454394,12.5589085 9.00756943,12.5710461 9.07117914,12.5710461 Z" fill="#000000" opacity="0.3" transform="translate(11.451854, 6.119192) rotate(-270.000000) translate(-11.451854, -6.119192) "></path>
        <path d="M9.23851648,24.5 L14,24.5 C14.2761424,24.5 14.5,24.2761424 14.5,24 L14.5,12.0962912 C14.5,11.8201488 14.2761424,11.5962912 14,11.5962912 C13.7955477,11.5962912 13.6116933,11.7207667 13.5357617,11.9105959 L8.77427814,23.8143047 C8.67172143,24.0706964 8.79642938,24.3616816 9.05282114,24.4642383 C9.11188128,24.4878624 9.17490677,24.5 9.23851648,24.5 Z" fill="#000000" transform="translate(11.500000, 18.000000) scale(1, -1) rotate(-270.000000) translate(-11.500000, -18.000000) "></path>
        <rect fill="#000000" opacity="0.3" transform="translate(12.000000, 12.000000) rotate(-270.000000) translate(-12.000000, -12.000000) " x="11" y="2" width="2" height="20" rx="1"></rect>
    </g>
</svg>
